homework-11/build/images/icons/icon-alarm.svg

<svg xmlns="http://www.w3.org/2000/svg" viewBox="0 0 34 34" id="icon-alarm"><g id="service"><path fill="#94e1d3" d="M31.74 11.5a15.729 15.729 0 00-8.24-8.24c1-.79 2.25-1.26 3.63-1.26C30.37 2 33 4.63 33 7.87c0 1.37-.47 2.63-1.26 3.63zM31.5 18c0 3.85-1.51 7.34-3.96 9.94l2.03 2.03c.26.27.43.64.43 1.05 0 .82-.66 1.48-1.48 1.48-.41 0-.78-.17-1.05-.43l-2.18-2.18a14.482 14.482 0 01-16.57.01l-2.16 2.16a1.498 1.498 0 11-2.12-2.12l2.01-2.01C4.01 25.33 2.5 21.85 2.5 18 2.5 9.99 8.99 3.5 17 3.5S31.5 9.99 31.5 18zM17 6.5C10.65 6.5 5.5 11.65 5.5 18S10.65 29.5 17 29.5 28.5 24.35 28.5 18 23.35 6.5 17 6.5zm6 13h-6c-.83 0-1.5-.67-1.5-1.5v-8c0-.83.67-1.5 1.5-1.5s1.5.67 1.5 1.5v6.5H23c.83 0 1.5.67 1.5 1.5s-.67 1.5-1.5 1.5zM2.29 11.71A5.965 5.965 0 011 8c0-3.31 2.69-6 6-6 1.4 0 2.69.48 3.71 1.29a15.977 15.977 0 00-8.42 8.42z" id="1"/></g></svg>

<svg xmlns="http://www.w3.org/2000/svg" viewBox="0 0 34 34" id="icon-alarm">
	<g id="service">
		<g id="1">
			<path fill="#94e1d3" d="M31.74 11.5C30.16 7.81 27.19 4.84 23.5 3.26C24.5 2.47 25.75 2 27.13 2C30.37 2 33 4.63 33 7.87C33 9.24 32.53 10.5 31.74 11.5ZM31.5 18C31.5 21.85 29.99 25.34 27.54 27.94L29.57 29.97C29.83 30.24 30 30.61 30 31.02C30 31.84 29.34 32.5 28.52 32.5C28.11 32.5 27.74 32.33 27.47 32.07L25.29 29.89C22.94 31.53 20.08 32.5 17 32.5C13.92 32.5 11.07 31.53 8.72 29.9L6.56 32.06C6.29 32.33 5.91 32.5 5.5 32.5C4.67 32.5 4 31.83 4 31C4 30.59 4.17 30.21 4.44 29.94L6.45 27.93C4.01 25.33 2.5 21.85 2.5 18C2.5 9.99 8.99 3.5 17 3.5C25.01 3.5 31.5 9.99 31.5 18ZM17 6.5C10.65 6.5 5.5 11.65 5.5 18C5.5 24.35 10.65 29.5 17 29.5C23.35 29.5 28.5 24.35 28.5 18C28.5 11.65 23.35 6.5 17 6.5ZM23 19.5L17 19.5C16.17 19.5 15.5 18.83 15.5 18L15.5 10C15.5 9.17 16.17 8.5 17 8.5C17.83 8.5 18.5 9.17 18.5 10L18.5 16.5L23 16.5C23.83 16.5 24.5 17.17 24.5 18C24.5 18.83 23.83 19.5 23 19.5ZM2.29 11.71C1.48 10.68 1 9.4 1 8C1 4.69 3.69 2 7 2C8.4 2 9.69 2.48 10.71 3.29C6.93 4.9 3.9 7.93 2.29 11.71Z" />
		</g>
	</g>
</svg>
